X: 1
T: When I Survey the Wondrous Cross
C: Words: Isaac Watts, 1707.  
C: Music: 'Rockingham Old' Edward Miller, 1790.  Setting: PD from Lutheran Worship, 1982.
C: copyright: public domain.  This score is a part of the Open Hymnal Project, 2005 Revision.
S: Music source: 'Lutheran Worship' Hymnal, 1982 Hymn 114.
M: 3/4 % time signature
L: 1/4 % default length
%%staves (S1V1 S1V2) | (S2V1 S2V2) 
V: S1V1 clef=treble 
V: S1V2 
V: S2V1 clef=bass 
V: S2V2 
K: D % key signature
%
%%MIDI program 1 0 % Piano 1
%%MIDI program 2 0 % Piano 1
%%MIDI program 3 0 % Piano 1
%%MIDI program 4 0 % Piano 1
%
% 1
[V: S1V1] [Q:1/4=130] D | (F G) [A,E] | D2 [DF] | [D2A2] [DB] | [D2A2] [DA] | [D2d2] [Dc] |
w: 1.~When I * sur- vey the wond- rous cross On which the 
w: 2.~For- bid * it, Lord, that I should boast, Save in the 
w: 3.~See from * His head, His hands, His feet, Sor- row and 
w: 4.~His dy- * ing crim- son, like a robe, Spreads o'er His
w: 5.~Were the * whole realm of na- ture mine, That were a 
[V: S1V2] D | D2 x | D2 x | x3 | x2 x | x2 x |
[V: S2V1] x | (B, G,) x | x3 | x2 G, | x3 | (F, G,) x |
[V: S2V2] [D,F,] | B,,2 [C,G,] | [D,2F,2] [B,,B,] | [F,2A,2] G, | [D,2F,2] [D,F,] | B,,2 [F,A,] |
% 9
[V: S1V1]  B2 [FA] | (A G) [DF] | ('([DF] [CE])) [CE] | [C2A2] [EB] | [E2c2] [CA] |
w: Prince of glo- * ry died, * My rich- est gain I 
w: death of Christ * my God! * All the vain things that 
w: love flow min- * gled down! * Did e'er such love and 
w: bo- dy on * the tree; * Then I am dead to 
w: pre- sent far * too small; * Love so a- maz- ing, 
[V: S1V2]  (D E) x | E2 x | x3 | x3 | x3 |
[V: S2V1]  (B, C) x | x3 | x2 A, | x3 | A,2 A, |
[V: S2V2]  G,2 [F,D] | [C,2A,2] [D,A,] | [A,,2A,2] A, | [F,2A,2] [E,^G,] | A,2 =G, |
% 13
[V: S1V1]  (d F) [D^G] | [C2A2] D | G2 [DF] | [C2E2] D | (D/E/ F) [CE] | D2 |]
w: count * but loss, And pour con- tempt on all * * my pride. 
w: charm * me most, I sac- ri- fice them to * * His blood. 
w: sor- * row meet, Or thorns com- pose so rich * * a crown? 
w: all * the globe, And all the globe is dead * * to me. 
w: so * di- vine, De- mands my soul, my life, * * my all. 
[V: S1V2]  D2 x | x2 D | (B, C) x | x2 D | D2 x | D2 |]
[V: S2V1]  x3 | x3 | x3 | (A, G,) x | x3 | x2 |]
[V: S2V2]  (,([F,A,] [D,B,])) [E,B,] | [A,,2A,2] [F,A,] | [E,2G,2] [D,A,] | A,,2 [B,,F,] | (,([G,,B,] [A,,A,])) [A,,=G,] | [F,2D,2] |]
% 17
